icons/syncthing.svg

<?xml version="1.0" encoding="UTF-8"?>
<svg version="1.1" viewBox="0 0 48 48" xmlns="http://www.w3.org/2000/svg">
 <path d="m24 4.5a19.5 19.5 0 0 0 -19.5 19.5 19.5 19.5 0 0 0 19.5 19.5 19.5 19.5 0 0 0 19.5 -19.5 19.5 19.5 0 0 0 -19.5 -19.5zm0 3.5a16 16 0 0 1 16 16 16 16 0 0 1 -16 16 16 16 0 0 1 -16 -16 16 16 0 0 1 16 -16z" fill="#fff"/>
 <circle cx="28.17" cy="26.33" r="5.175" fill="#fff"/>
 <circle cx="40.24" cy="16.23" r="5.175" fill="#fff"/>
 <circle cx="35.81" cy="37.58" r="5.175" fill="#fff"/>
 <circle cx="6.583" cy="28.54" r="5.175" fill="#fff"/>
 <path d="m28.01 24.73-21.59 2.219 0.3262 3.184 21.59-2.219z" fill="#fff"/>
 <path d="m39.21 15.01-12.06 10.09 2.053 2.455 12.06-10.09z" fill="#fff"/>
 <path d="m29.5 25.43-2.648 1.795 7.633 11.26 2.648-1.795z" fill="#fff"/>
</svg>

<?xml version="1.0" encoding="UTF-8"?>
<svg version="1.1" viewBox="0 0 48 48" xmlns="http://www.w3.org/2000/svg">
    <g transform="matrix(1.0453 0 0 1.0453 -.47177 -1.0869)" fill="#fff">
        <path d="M 24,4.5 A 19.5,19.5 0 0 0 4.5,24 19.5,19.5 0 0 0 24,43.5 19.5,19.5 0 0 0 43.5,24 19.5,19.5 0 0 0 24,4.5 Z M 24,8 A 16,16 0 0 1 40,24 16,16 0 0 1 24,40 16,16 0 0 1 8,24 16,16 0 0 1 24,8 Z"/>
        <circle cx="28.17" cy="26.33" r="5.175"/>
        <circle cx="40.24" cy="16.23" r="5.175"/>
        <circle cx="35.81" cy="37.58" r="5.175"/>
        <circle cx="6.583" cy="28.54" r="5.175"/>
        <path d="m28.01 24.73-21.59 2.219 0.3262 3.184 21.59-2.219z"/>
        <path d="m39.21 15.01-12.06 10.09 2.053 2.455 12.06-10.09z"/>
        <path d="m29.5 25.43-2.648 1.795 7.633 11.26 2.648-1.795z"/>
    </g>
</svg>
